X: 1499
T:Double Clog
M:4/4
L:1/8
C:Trad.
S:Arr. C Ricker
R:Reel
K:Bb
F>A|:B2dB fBAB|gBaB bBAB|FBAB Gc=Bc|AecA BFDF|!
B2 dB fBAB|gBaB bBAB|FBAB Gc=Bc|AecA BFGA:|!
|:B2 dB fBAB|bagf =egfd|B2dB fdBd|(3cde Ac BFDF|!
B2 dB fBAB|bagf =egfd|B2 dB fdBd|(3cde Ac BFGA:|
